Catalina-light/actions/22/draw-bezier-curves.svg

<svg viewBox="0 0 22 22" xmlns="http://www.w3.org/2000/svg">
<defs>
<style id="current-color-scheme" type="text/css">.ColorScheme-Text {
        color:#4d4d4d
      }</style>
</defs>
<path class="ColorScheme-Text" d="m17.5 3c-0.65424 0-1.2022 0.41808-1.4082 1h-13.092v1c3.601 0 6.5 2.899 6.5 6.5 0 1.9055-0.82211 3.6018-2.1211 4.7871-0.24573-0.18024-0.54878-0.28711-0.87891-0.28711-0.831 0-1.5 0.669-1.5 1.5s0.669 1.5 1.5 1.5c0.65424 0 1.2022-0.41808 1.4082-1h4.0918v1h3v-3h-3v1h-3.9121c1.4792-1.3679 2.4121-3.3171 2.4121-5.5 0-2.7887-1.5107-5.2075-3.7578-6.5h9.3496c0.206 0.58192 0.75396 1 1.4082 1 0.831 0 1.5-0.669 1.5-1.5s-0.669-1.5-1.5-1.5zm0 1c0.277 0 0.5 0.223 0.5 0.5s-0.223 0.5-0.5 0.5c-0.0693 0-0.13545-0.0138-0.19531-0.0391-0.17958-0.07567-0.30469-0.25315-0.30469-0.4609 0-0.0693 0.0138-0.13545 0.0391-0.19531 0.0757-0.17958 0.25319-0.30469 0.46094-0.30469zm-11 13c0.277 0 0.5 0.223 0.5 0.5s-0.223 0.5-0.5 0.5-0.5-0.223-0.5-0.5 0.223-0.5 0.5-0.5zm6.5 0h1v1h-1v-1z" fill="currentColor"/>
</svg>

<svg xmlns="http://www.w3.org/2000/svg" viewBox="0 0 22 22">
  <defs id="defs3051">
    <style type="text/css" id="current-color-scheme">
      .ColorScheme-Text {
        color:#4d4d4d
      }
      </style>
  </defs>
 <path 
     style="fill:currentColor;fill-opacity:1;stroke:none"      
	 class="ColorScheme-Text"
        d="M 17.5,3 C 16.84576,3 16.2978,3.41808 16.0918,4 L 3,4 3,5 c 3.601,0 6.5,2.899 6.5,6.5 0,1.90551 -0.82211,3.60178 -2.12109,4.78711 C 7.13318,16.10687 6.83013,16 6.5,16 5.669,16 5,16.669 5,17.5 5,18.331 5.669,19 6.5,19 7.15424,19 7.7022,18.58192 7.9082,18 L 12,18 l 0,1 3,0 0,-3 -3,0 0,1 -3.91211,0 C 9.56704,15.63207 10.5,13.6829 10.5,11.5 10.5,8.71133 8.98933,6.29253 6.74219,5 L 16.0918,5 C 16.2978,5.58192 16.84576,6 17.5,6 18.331,6 19,5.331 19,4.5 19,3.669 18.331,3 17.5,3 Z m 0,1 C 17.777,4 18,4.223 18,4.5 18,4.777 17.777,5 17.5,5 17.4307,5 17.36455,4.9862 17.30469,4.9609 17.12511,4.88523 17,4.70775 17,4.5 17,4.4307 17.0138,4.36455 17.0391,4.30469 17.1148,4.12511 17.29229,4 17.50004,4 Z M 6.5,17 C 6.777,17 7,17.223 7,17.5 7,17.777 6.777,18 6.5,18 6.223,18 6,17.777 6,17.5 6,17.223 6.223,17 6.5,17 Z m 6.5,0 1,0 0,1 -1,0 0,-1 z"
     />
</svg>
